!!!OTL: 84c. Zwei Koenigskinder.
!!!ODT: 1835
!!!ARE: Europa, Mitteleuropa, Deutschland, Niederrhein; Bergisches Land
!!!SCT: E0084B
!!!TXL: @@DE
!!!YEM: Copyright 1995, estate of Helmut Schaffrath.
**kern	**text
*ICvox	*
*M6/8	*
*k[b-e-]	*
*g:	*
!LO:TX:a:t=Langſam.	!
!LO:TX:a:t=Vom Niederrhein, Bergiſch u. Umgegend von Düſſeldorf 1835.	!
{8b-	Es
=1	=1
8g	wa-
8g	-ren
8a	ʒwei
8b-L	Kö-
8aJ	.
8b-/	-nigs-
=2	=2
(4g	-kin-
8b-/)	.
4a}	-der,
{8b-/	die
=3	=3
8g	hat-
8g	-ten
8a	ein-
8cc	-an-
8b-	-der
8a	ſo
=4	=4
(4g	lieb;
8f#	.
4g)}	.
{16gL	ſie
16aJ	.
=5	=5
8b-	konnten
8b-	.
8b-	bei-
8cc	-ſammen
8cc	.
8cc	nicht
=6	=6
4.dd	kom-
4cc}	-men,
{8dd	das
=7	=7
8b-/	Waſſer
8a	.
8g	war
8f#	viel
8g	.
8a	ʒu
=8	=8
[4.g	tief.
8g]	.
8r}	.
==	==
!!!AGN: erzaehlendes Volks - Lied, Sage, Liebe, Leid, Tod, Ballade ?
!!!ONB: ESAC (Essen Associative Code) Database: ERK1
!!!AMT: compound duple
!!!AIN: vox
!!!EED: Helmut Schaffrath
!!!EEV: 1.0
!!!GTL: Liebesgeschichten mit tragischem Schluss
!!!URL-scan: https://rosdok.uni-rostock.de/mcrviewer/recordIdentifier/rosdok_ppn745146120/iview2/phys_0359.iview2?x=-495.6391625615772&y=524.1558928422164&scale=0.46294184720638515&rotation=0&layout=singlePageLayout
!!!ENC: Anna Maria Matuszewska
!!!EEV: 2024/11/26
*-	*-
